X:0841
T:Miss Stewart of Garth's Reel.
N:incomplete; two bars added from a transposition of the version in John McGlashan, 1798, Gore Mc10
N:sig in Aird is G major with all Fs marked as natural by accidentals (McG does the same in A)
M:C|
L:1/8
Q:1/2=108
I: :: ||
Z:Jack Campin * www.campin.me.uk * 2009
K:G Mixolydian
c|BG B/c/d BG B/c/d|AFFA c2cA|BG B/c/d BG B/c/d|gGGB d2d:|
c|Bcde     fgfd    |cAFA c2cA|Bcde     fgfd    |gGGB d2d
c|Bcde     fgfd    |cAFA c2cA|Bcde     fgfd    |gdec ded|]
% original in the book
% c|BG B/c/d BG B/c/d|AFFA c2cA|BG B/c/d BG B/c/d|gGGB d2d:|
% c|Bcde     fgfd    |cAFA c2cA|Bcde     fgfd    |gGGB d2d
% c|Bcde     fgfd    |gdec ded:|

